X:1
T:Title
%%score { ( 1 3 ) | ( 2 4 ) }
L:1/8
M:4/4
K:Ab
V:1 treble nm="Grand Piano"
V:3 treble 
V:2 treble 
V:4 treble 
V:1
 z4 z2[Q:1/4=100] e>d | c2 c2 c2 [Ec]>[DB] | [CA]2 [CA]2 [EG]>[A,DF] [CE]>[DF] | [CE]2 A>B c2 B>A | %4
 e4 z4 | c2 c2 c2 [Ec]>[DB] | [CA]2 [CA]2 [EG]>[DF] E>F | E2 A>B c2 B>[CA] |[M:3/4] [CA]6 | %9
[M:1/4] C>D |[M:4/4] E6 z2 | c6 z2 | e2 e>f e2 [Bd]>[Ac] | [Ac]4 [GB]2 [Be]>[Bd] | %14
 c2 c2 c2 [Ec]>[DB] | [CA]2 [CA]2 [EG]>[DF] E>F | E2 A>B c2 B>[CA] |[M:3/4] [CA]6 |] %18
V:2
 z4 z2 [A,CA]>[A,EA] | [A,EA]2 [A,EA]2 [A,EA]2[K:bass] [A,,A,]>[A,,A,] | %2
 [A,,A,]2 [A,,A,]2 [A,,A,]>G,, [A,,A,]>[A,,A,] | [A,,A,]2 [A,C]>[A,D] [A,E]2 [G,B,E]>[F,B,=D] | %4
 B,4 z2[K:treble] [G,E]>[G,E] | [A,EA]2 [A,EA]2 [A,EA]2[K:bass] [A,,A,]>[A,,A,] | %6
 [A,,A,]2 [A,,A,]2 [A,,A,]>[B,,A,] [C,A,C]>[D,A,D] | %7
 [E,A,C]2 [E,A,C]>[E,A,D] [E,A,E]2 [E,G,D]>[A,,E,] |[M:3/4] [A,,E,]6 |[M:1/4] A,>B, | %10
[M:4/4] C6[K:treble] z2 | A6 z2 | [A,CA]2 [A,CA]>[A,DA] [A,CA]2[K:bass] [G,E]>[A,E] | %13
 [E,E]6 [G,E]>[G,E] | [A,EA]2 [A,EA]2 [A,EA]2[K:bass] [A,,A,]>[A,,A,] | %15
 [A,,A,]2 [A,,A,]2 [A,,A,]>[B,,G,] [C,A,C]>[D,A,D] | %16
 [E,A,C]2 [E,A,C]>[E,A,D] [E,A,E]2 [E,G,D]>[A,,E,] |[M:3/4] [A,,E,]6 |] %18
V:3
 x8 | x8 | x8 | x8 | G4- [EGB]2 [Be]>[Bd] | x8 | x8 | x8 |[M:3/4] x6 |[M:1/4] x2 | %10
[M:4/4] z2 A,>A, A,2 A>B | z2 E>E E2 c>d | x8 | x8 | x8 | x8 | x8 |[M:3/4] x6 |] %18
V:4
 x8 | x6[K:bass] x2 | x8 | x8 | E,6[K:treble] z2 | x6[K:bass] x2 | x8 | x8 |[M:3/4] x6 | %9
[M:1/4] x2 |[M:4/4] z2 A,,>A,, A,,2[K:treble] E>G | z2 A,>A, A,2 [A,A]>[A,CA] | x6[K:bass] x2 | %13
 x8 | x6[K:bass] x2 | x8 | x8 |[M:3/4] x6 |] %18

